X: 39
T:I'll Never Leave Thee. WCa.39
M:C|
Q:200
S:Wm. Calvert MS, 1812, Leyburn, Yorks.
R:reel
O:England
A:North Yorkshire
N:violin fingering in MS...CGP...
Z:vmp.Chris Partington, May 2003
K:D
"Key sig. Amaj in MS"d2fa gfef|d2fag2B2|d2fa gfef|A2edc2A2::!
dcBA GAB2|d2fag2B2|dcBA GAB2|A2edc2A2:||
W:Accompanied by fiddle fingering.|
